www/assets/icons/sports_martial_arts.svg

<svg width="24" height="24" viewBox="0 0 24 24" xmlns="http://www.w3.org/2000/svg" fill='currentColor'><path d="M19.8 2.5L11.6 9.2L10.39 8.16L13.99 6.08L9.41 1.5L8 2.91L10.74 5.65L5 8.96L3.81 13.25L6.27 17.5L8 16.5L5.97 12.98L6.32 11.68L9.5 13.5L10 22.5H12L12.5 12.5L21 3.9L19.8 2.5Z"/><path d="M5 7.5C6.10457 7.5 7 6.60457 7 5.5C7 4.39543 6.10457 3.5 5 3.5C3.89543 3.5 3 4.39543 3 5.5C3 6.60457 3.89543 7.5 5 7.5Z"/></svg>

<svg xmlns="http://www.w3.org/2000/svg" width="24" height="24" viewBox="0 0 24 24" fill='currentColor'><path d="m19.8 2.5-8.2 6.7-1.21-1.04 3.6-2.08L9.41 1.5 8 2.91l2.74 2.74L5 8.96l-1.19 4.29 2.46 4.25 1.73-1-2.03-3.52.35-1.3L9.5 13.5l.5 9h2l.5-10L21 3.9z"/><path d="M5 7.5a2 2 0 1 0 0-4 2 2 0 0 0 0 4"/></svg>
